X:1
T:Invention No. 2 BWV 773
T:J. S. Bach
%%score { 1 | 2 }
L:1/8
M:4/4
K:Eb
V:1 treble nm="Piano" snm="Pno."
V:2 treble 
V:1
 z c/=B/ c/d/e/G/ A/_B/A/F/ f/e/d/c/ | =B/a/g/f/ e/d/c/B/ c/d/c/d/ e/4d/4e/4d/4e/4d/4c/4d/4 | %2
 e/d/c/d/ e/f/gg/8a/8g/4-g/f z f | f/8g/8f/4-f/e z d eA- A/F/B/F/ | %4
 Ge- e/d/e/B/ c/e/a/g/ f/e/d/c/ | B/d/g/f/ e/d/c/B/ A/c/f/c/d/8e/8d/4-dd/ | %6
 e/B/c/B/ g2- g/B/c/B/ a2- | a/B/e/d/ (g/f/)a/g/ c'/b/a/g/ f/b/a/b/ | %8
 g/b/a/b/ e/g/f/g/ c/d/e/f/ d/e/f/g/ | e/f/g/a/ b/a/c'/b/ a/g/f/a/ d2- | %10
 d/d/g/d/ e/c/d/B/ c2- c/g/^f/=a/ | c/B/c- c/^f/=e/d/ b>e f>g | %12
 gG/^F/ G/=A/B/D/ E/=F/E/C/ c/B/A/G/ | ^F/e/d/c/ B/=A/G/F/ G/A/G/A/ B/4A/4B/4A/4B/4A/4G/4A/4 | %14
 B/=A/G/A/ B/c/dd/8e/8d/4-d/c z c | c/8d/8c/4-c/B z =A BE- E/C/F/C/ | %16
 DB- B/=A/B/F/ G/B/e/d/ c/B/A/G/ | F/=A/d/c/ B/A/G/F/ E/G/c/G/A/8B/8A/4-AA/ | %18
 B/F/G/F/ d2- d/F/G/F/ e2- | e/F/B/=A/ d/c/e/d/ g/f/e/d/ c/f/e/f/ | %20
 d/c/B/=A/ d/c/e/d/ c/B/A/c/ f2- | f/G/c/=B/ e/d/f/e/ a/g/f/e/ d/g/f/g/ | %22
 e/d/c/=B/ c/d/e/G/ A/_B/A/F/ f/e/d/c/ | =B/a/g/f/ e/d/c/B/ c/d/c/d/ e/4d/4e/4d/4e/4d/4c/4d/4 | %24
 e/d/c/d/ e/f/gg/8a/8g/4-g/f z f | f/8g/8f/4-f/e/d/ g/f/a/g/ g>ad/8e/8d/4-dc/ | !fermata!c8 |] %27
V:2
 z8 | z8 | z C/=B,/ C/D/E/G,/ A,/_B,/A,/F,/ F/E/D/C/ | %3
 =B,/A/G/F/ E/D/C/B,/ C/D/C/D/ E/4D/4E/4D/4E/4D/4C/4D/4 | E/D/C/D/ E/F/GG/8A/8G/4-G/F z F | %5
 F/8G/8F/4-F/E z D EA,- A,/F,/B,/F,/ | G,E- E/D/E/B,/ C/E/A/G/ F/E/D/C/ | %7
 B,/D/G/F/ E/D/C/B,/ A,/C/F/C/D/8E/8D/4-DD/ | E/B,/C/B,/ G2- G/B,/C/B,/ A2- | %9
 A/B,/E/D/ G/F/A/G/ c/B/A/G/ F/B/A/B/ | G[K:bass]E,/F,/ G,/=A,/B,/D,/ E,/F,/E,/C,/ C/B,/A,/G,/ | %11
 ^F,/E/D/C/ B,/=A,/G,/F,/ G,/A,/G,/A,/ B,/4A,/4B,/4A,/4B,/4A,/4G,/4A,/4 | %12
 B,/=A,/G,/A,/ B,/C/DD/8E/8D/4-D/C z C | C/8D/8C/4-C/B, z =A, B,E,- E,/C,/F,/C,/ | %14
 D,B,- B,/=A,/B,/F,/ G,/B,/E/D/ C/B,/A,/G,/ | %15
 F,/=A,/D/C/ B,/A,/G,/F,/ E,/G,/C/G,/A,/8B,/8A,/4-A,A,/ | B,/F,/G,/F,/ D2- D/F,/G,/F,/ E2- | %17
 E/F,/B,/=A,/ D/C/E/D/ G/F/E/D/ C/F/E/F/ | D/F/E/F/ B,/D/C/D/ G,/=A,/B,/C/ A,/B,/C/D/ | %19
 B,/C/D/E/ F/E/G/F/ E/D/C/E/ =A,2- | A,/D,/G,/^F,/ B,/=A,/C/B,/ E/D/C/B,/ A,/D/C/D/ | %21
 =B,/F/E/D/ C/_B,/A,/G,/ F,/E,/D,/C,/ G,G,, | C,>D, E,/F,/G,G,/8A,/8G,/4-G,/F, z F, | %23
 F,/8G,/8F,/4-F,/E,- E,/F,/E,/D,/ C,/B,,/A,,/G,,/ F,,/E,,/F,,/G,,/ | %24
 C,,C,/=B,,/ C,/D,/E,/G,,/ A,,/_B,,/A,,/F,,/ F,/E,/D,/C,/ | %25
 =B,,/A,/G,/F,/ E,/D,/C,/B,,/ C,/G,,/A,,/F,,/ G,,G,, | !fermata!C,,8 |] %27

